M99123 /RKIIyAfrgVn63QgWjcMv3w/DQafsD84EnC8915R6MD0Ipw/VGrHawCYdCJaNwKoDQafsD84EnC8915R6MD/RKIIyAfrgVn63QgWjcMv3w/DQafsD84EnC8915R6MD0Ipw/VGrHawCYdCJaNwKoDQafsD84EnC8915R6M/RKIIyAfrgVn63QgWjcMv3w/DQafsD84EnC8915R6MD0Ipw/VGrHawCYdCJaNwKoDQafsD84EnC8915R6M/RKIIyAfrgVn63QgWjcMv3w/DQafsD84EnC8915R6MD0Ipw/VGrHawCYdCJaNwKoDQafsD84EnC8915R6MD0Ipw/VGrHawCYdCJaNwKoDQafsD84EnC8915R6MD0Ipw/DQafsD84EnC8915R6MD0IpD0Ipw/VGrHawCYdCJaNwKoDQafsD84EnC8915R6MD0Ipw/DQafsD84EnC8915R6MD0IpD0Ipw/VGrHawCYdCJaNwKoDQafsD84EnC8915R6MD0Ipw/DQafsD84EnC8915R6MD0Ip0Ipw/VGrHawCYdCJaNwKoDQafsD84EnC8915R6MD0Ipw/DQafsD84EnC8915R6MD0Ipw
;Sliced by ideaMaker 4.4.1.7980, 2023-10-27 12:35:05 UTC+0800
;Dimension: 305.000 305.000 300.000 0.400 0.400
;Plate Shape: 0
;Origin Center: 0
;Extruder Offset #1: 0.000 0.000
;Filament Diameter #1: 1.750
;Filament Diameter #2: 1.750
;Filament Compensation #1: 95.00
;Filament Compensation #2: 90.00
;Filament Density #1: 1240.00
;Filament Density #2: 1240.00
;Filament Type #1: PLA
;Filament Type #2: PLA
;Filament Name #1: [Raise3D] PLA 1.75mm
;Filament Name #2: [Raise3D] PLA 1.75mm
;Firmware: Raise3D Pro2
;Bounding Box: 14.473 174.161 19.681 189.776 0.000 102.040
;Model Gap: 0.000
M221 T0 S95.00
M140 S60.00
M104 T0 S210.00
M109 T0 S210.00
T0
M190 S60.00
G21                      ; set units to Millimetres
G90                      ; absolute positioning
M82                      ; set extruder to absolute mode
G92 E0                   ; set extruder position to 0
G28 ; home all axes
g29
M117 Purge extruder
G92 E0 ; reset extruder
G1 Z1.0 F3000 ; move z up little to prevent scratching of surface
G1 X0.1 Y20 Z0.3 F5000.0 ; move to start-line position
G1 X0.1 Y200.0 Z0.3 F1500.0 E15 ; draw 1st line
G1 X0.4 Y200.0 Z0.3 F5000.0 ; move to side a little
G1 X0.4 Y20 Z0.3 F1500.0 E30 ; draw 2nd line
; G1 E27 F3000 ; retract filament 3mm
G92 E0 ; reset extruder
; done purging extruder
G1 Z1.0 F3000 ; move z up little to prevent scratching of surface
M1001
;TOTAL_NUM: 2
;PRINTING_TIME: 710
;REMAINING_TIME: 10030
;LAYER:0
;Z:0.240
;HEIGHT:0.240
M106 S0
;PRINTING: NON-OBJECT
;PRINTING_ID: -1
G1 F3600 E-6.0000
G0 F6000 X26.343 Y31.592
G0 F300 Z0.240
;TYPE:SKIRT
;WIDTH:0.400
G1 F1500 E0.0000
G1 F600 X27.124 Y30.832 E0.0435
G1 X29.460 Y28.779 E0.1676
G1 X30.299 Y28.117 E0.2103
G1 X32.816 Y26.327 E0.3335
G1 X33.739 Y25.740 E0.3772
G1 X36.445 Y24.209 E0.5013
G1 X37.402 Y23.731 E0.5440
G1 X40.232 Y22.494 E0.6673
G1 X41.233 Y22.117 E0.7100
G1 X44.215 Y21.164 E0.8349
G1 X45.254 Y20.890 E0.8778
G1 X48.277 Y20.259 E1.0010
G1 X49.352 Y20.092 E1.0445
G1 X52.440 Y19.773 E1.1684
G1 X53.242 Y19.721 E1.2004
G1 X54.804 Y19.681 E1.2628
G1 X56.876 Y19.721 E1.3455
G1 X57.695 Y19.774 E1.3783
G1 X60.789 Y20.095 E1.5024
G1 X61.843 Y20.259 E1.5450
G1 X64.886 Y20.895 E1.6691
G1 X65.925 Y21.170 E1.7120
G1 X68.868 Y22.110 E1.8353
G1 X69.888 Y22.494 E1.8788
G1 X72.718 Y23.731 E2.0021
G1 X73.675 Y24.209 E2.0447
G1 X76.381 Y25.740 E2.1688
G1 X77.304 Y26.327 E2.2125
G1 X79.837 Y28.129 E2.3366
G1 X80.660 Y28.779 E2.3784
G1 X82.996 Y30.832 E2.5025
G1 X83.777 Y31.592 E2.5460
G1 X85.875 Y33.858 E2.6693
G1 X86.575 Y34.698 E2.7129
G1 X88.441 Y37.186 E2.8371
G1 X89.038 Y38.074 E2.8798
G1 X90.628 Y40.722 E3.0030
G1 X91.139 Y41.683 E3.0465
G1 X92.449 Y44.480 E3.1698
G1 X92.862 Y45.494 E3.2135
G1 X93.877 Y48.412 E3.3368
G1 X94.182 Y49.460 E3.3803
G1 X94.896 Y52.487 E3.5045
G1 X95.086 Y53.538 E3.5471
G1 X95.485 Y56.621 E3.6712
G1 X95.568 Y57.692 E3.7140
G1 X95.647 Y60.800 E3.8381
G1 X95.619 Y61.868 E3.8808
G1 X95.379 Y64.967 E4.0048
G1 X95.241 Y66.031 E4.0476
G1 X94.687 Y69.070 E4.1709
G1 X94.436 Y70.132 E4.2145
G1 X93.567 Y73.117 E4.3386
G1 X93.214 Y74.128 E4.3813
G1 X92.050 Y76.990 E4.5046
G1 X91.587 Y77.979 E4.5482
G1 X90.125 Y80.723 E4.6723
G1 X89.574 Y81.638 E4.7149
G1 X88.332 Y83.484 E4.8037
G1 X90.991 Y81.949 E4.9263
G1 X92.072 Y81.406 E4.9746
G1 X97.058 Y79.255 E5.1913
G1 X98.173 Y78.850 E5.2386
G1 X103.375 Y77.292 E5.4554
G1 X104.576 Y77.007 E5.5046
G1 X109.924 Y76.065 E5.7214
G1 X111.127 Y75.925 E5.7697
G1 X116.548 Y75.610 E5.9864
G1 X117.755 Y75.611 E6.0346
G1 X123.177 Y75.927 E6.2514
G1 X124.378 Y76.068 E6.2997
G1 X129.727 Y77.012 E6.5164
G1 X130.904 Y77.291 E6.5647
G1 X136.114 Y78.852 E6.7818
G1 X137.222 Y79.255 E6.8289
G1 X142.230 Y81.416 E7.0465
G1 X143.309 Y81.960 E7.0948
G1 X148.012 Y84.676 E7.3115
G1 X149.021 Y85.340 E7.3597
G1 X153.377 Y88.583 E7.5765
G1 X154.303 Y89.361 E7.6248
G1 X158.253 Y93.088 E7.8415
G1 X159.083 Y93.969 E7.8898
G1 X162.574 Y98.130 E8.1066
G1 X163.295 Y99.101 E8.1549
G1 X166.266 Y103.619 E8.3707
G1 X166.882 Y104.685 E8.4198
G1 X169.309 Y109.517 E8.6357
G1 X169.797 Y110.648 E8.6848
G1 X171.654 Y115.751 E8.9016
G1 X171.995 Y116.889 E8.9490
G1 X173.253 Y122.197 E9.1667
G1 X173.462 Y123.389 E9.2150
G1 X174.089 Y128.760 E9.4308
G1 X174.161 Y129.989 E9.4800
G1 X174.161 Y135.396 E9.6958
G1 X174.089 Y136.625 E9.7449
G1 X173.459 Y142.019 E9.9616
G1 X173.253 Y143.188 E10.0090
G1 X171.995 Y148.496 E10.2267
G1 X171.654 Y149.634 E10.2742
G1 X169.797 Y154.737 E10.4909
G1 X169.319 Y155.845 E10.5391
G1 X166.882 Y160.700 E10.7559
G1 X166.278 Y161.747 E10.8041
G1 X163.295 Y166.285 E11.0209
G1 X162.573 Y167.257 E11.0692
G1 X159.082 Y171.417 E11.2859
G1 X158.238 Y172.313 E11.3351
G1 X154.287 Y176.040 E11.5519
G1 X153.359 Y176.817 E11.6002
G1 X149.021 Y180.046 E11.8160
G1 X148.012 Y180.710 E11.8642
G1 X143.289 Y183.437 E12.0819
G1 X142.206 Y183.980 E12.1302
G1 X137.220 Y186.130 E12.3469
G1 X136.085 Y186.542 E12.3951
G1 X130.905 Y188.093 E12.6110
G1 X129.704 Y188.378 E12.6602
G1 X124.378 Y189.317 E12.8761
G1 X123.155 Y189.460 E12.9252
G1 X117.734 Y189.776 E13.1419
G1 X116.546 Y189.776 E13.1894
G1 X111.125 Y189.460 E13.4061
G1 X109.924 Y189.320 E13.4544
G1 X104.553 Y188.373 E13.6720
G1 X103.376 Y188.094 E13.7203
G1 X98.559 Y186.652 E13.9210
G1 X98.166 Y186.533 E13.9374
G1 X97.039 Y186.121 E13.9853
G1 X92.052 Y183.970 E14.2020
G1 X90.971 Y183.426 E14.2503
G1 X86.288 Y180.722 E14.4662
G1 X85.259 Y180.046 E14.5153
G1 X80.921 Y176.817 E14.7311
G1 X79.993 Y176.040 E14.7795
G1 X76.042 Y172.313 E14.9962
G1 X75.198 Y171.417 E15.0454
G1 X71.707 Y167.257 E15.2621
G1 X70.998 Y166.304 E15.3095
G1 X68.014 Y161.767 E15.5263
G1 X67.409 Y160.720 E15.5745
G1 X64.961 Y155.846 E15.7922
G1 X64.482 Y154.735 E15.8405
G1 X62.626 Y149.632 E16.0572
G1 X62.280 Y148.475 E16.1054
G1 X61.027 Y143.190 E16.3222
G1 X60.821 Y142.019 E16.3697
G1 X60.189 Y136.602 E16.5873
G1 X60.119 Y135.396 E16.6355
G1 X60.120 Y129.966 E16.8523
G1 X60.191 Y128.760 E16.9005
G1 X60.821 Y123.366 E17.1172
G1 X61.032 Y122.172 E17.1656
G1 X62.280 Y116.910 E17.3815
G1 X62.633 Y115.731 E17.4306
G1 X64.482 Y110.650 E17.6464
G1 X64.961 Y109.539 E17.6947
G1 X67.409 Y104.665 E17.9124
G1 X68.014 Y103.619 E17.9606
G1 X70.998 Y99.082 E18.1773
G1 X71.706 Y98.130 E18.2247
G1 X72.902 Y96.704 E18.2990
G1 X71.796 Y97.258 E18.3483
G1 X70.830 Y97.680 E18.3904
G1 X67.901 Y98.783 E18.5153
G1 X66.885 Y99.107 E18.5579
G1 X63.879 Y99.899 E18.6820
G1 X62.848 Y100.115 E18.7240
G1 X59.755 Y100.596 E18.8489
G1 X58.691 Y100.704 E18.8916
G1 X55.585 Y100.864 E19.0158
G1 X54.535 Y100.864 E19.0577
G1 X51.409 Y100.703 E19.1826
G1 X50.344 Y100.593 E19.2253
G1 X47.272 Y100.115 E19.3494
G1 X46.241 Y99.899 E19.3915
G1 X43.235 Y99.107 E19.5155
G1 X42.200 Y98.776 E19.5589
G1 X39.290 Y97.680 E19.6830
G1 X38.305 Y97.249 E19.7259
G1 X35.543 Y95.868 E19.8492
G1 X34.595 Y95.332 E19.8926
G1 X31.988 Y93.674 E20.0160
G1 X31.115 Y93.053 E20.0587
G1 X28.661 Y91.110 E20.1836
G1 X27.857 Y90.402 E20.2264
G1 X25.634 Y88.235 E20.3503
G1 X25.071 Y87.641 E20.3830
G1 X23.965 Y86.375 E20.4501
G1 X22.743 Y84.850 E20.5281
G1 X22.270 Y84.201 E20.5601
G1 X20.535 Y81.621 E20.6842
G1 X19.985 Y80.705 E20.7268
G1 X18.533 Y77.979 E20.8501
G1 X18.070 Y76.990 E20.8937
G1 X16.906 Y74.128 E21.0170
G1 X16.553 Y73.117 E21.0598
G1 X15.684 Y70.132 E21.1838
G1 X15.433 Y69.070 E21.2274
G1 X14.879 Y66.031 E21.3507
G1 X14.741 Y64.967 E21.3935
G1 X14.501 Y61.868 E21.5176
G1 X14.473 Y60.777 E21.5611
G1 X14.554 Y57.668 E21.6853
G1 X14.637 Y56.604 E21.7279
G1 X15.033 Y53.541 E21.8511
G1 X15.225 Y52.483 E21.8940
G1 X15.945 Y49.437 E22.0190
G1 X16.243 Y48.415 E22.0614
G1 X17.257 Y45.497 E22.1847
G1 X17.663 Y44.499 E22.2277
G1 X18.981 Y41.683 E22.3518
G1 X19.492 Y40.722 E22.3953
G1 X21.093 Y38.057 E22.5194
G1 X21.691 Y37.169 E22.5621
G1 X23.545 Y34.698 E22.6854
G1 X24.245 Y33.858 E22.7290
G1 X26.343 Y31.592 E22.8523
G0 F6000 X26.637 Y31.864
G1 F600 X27.388 Y31.132 E22.8941
G1 X29.708 Y29.093 E23.0174
G1 X30.531 Y28.443 E23.0593
G1 X33.048 Y26.653 E23.1825
G1 X33.936 Y26.088 E23.2246
G1 X36.624 Y24.567 E23.3478
G1 X37.562 Y24.098 E23.3897
G1 X40.392 Y22.861 E23.5130
G1 X41.374 Y22.491 E23.5548
G1 X44.317 Y21.551 E23.6781
G1 X45.336 Y21.282 E23.7202
G1 X48.359 Y20.651 E23.8435
G1 X49.393 Y20.490 E23.8852
G1 X52.466 Y20.172 E24.0085
G1 X53.252 Y20.121 E24.0400
G1 X54.796 Y20.081 E24.1016
G1 X56.868 Y20.121 E24.1843
G1 X57.654 Y20.172 E24.2158
G1 X60.727 Y20.490 E24.3391
G1 X61.761 Y20.651 E24.3808
G1 X64.784 Y21.282 E24.5041
G1 X65.803 Y21.551 E24.5462
G1 X68.746 Y22.491 E24.6695
G1 X69.728 Y22.861 E24.7113
G1 X72.558 Y24.098 E24.8346
G1 X73.496 Y24.567 E24.8765
G1 X76.184 Y26.088 E24.9997
G1 X77.072 Y26.653 E25.0417
G1 X79.589 Y28.443 E25.1650
G1 X80.412 Y29.093 E25.2069
G1 X82.732 Y31.132 E25.3302
G1 X83.483 Y31.864 E25.3720
G1 X85.581 Y34.130 E25.4953
G1 X86.255 Y34.938 E25.5373
G1 X88.109 Y37.409 E25.6606
G1 X88.695 Y38.280 E25.7025
G1 X90.285 Y40.928 E25.8257
G1 X90.777 Y41.853 E25.8675
G1 X92.087 Y44.650 E25.9908
G1 X92.484 Y45.625 E26.0328
G1 X93.499 Y48.543 E26.1561
G1 X93.793 Y49.552 E26.1981
G1 X94.502 Y52.558 E26.3214
G1 X94.689 Y53.589 E26.3632
G1 X95.086 Y56.652 E26.4865
G1 X95.168 Y57.702 E26.5285
G1 X95.247 Y60.790 E26.6518
G1 X95.220 Y61.837 E26.6936
G1 X94.982 Y64.916 E26.8168
G1 X94.847 Y65.959 E26.8588
G1 X94.293 Y68.998 E26.9821
G1 X94.052 Y70.020 E27.0240
G1 X93.189 Y72.985 E27.1473
G1 X92.843 Y73.977 E27.1892
G1 X91.679 Y76.839 E27.3125
G1 X91.234 Y77.791 E27.3545
G1 X89.782 Y80.517 E27.4777
G1 X89.242 Y81.415 E27.5195
G1 X87.518 Y83.978 E27.6428
G1 X86.939 Y84.750 E27.6813
G1 X91.171 Y82.306 E27.8764
G1 X92.230 Y81.773 E27.9237
G1 X97.195 Y79.631 E28.1395
G1 X98.310 Y79.226 E28.1869
G1 X103.490 Y77.675 E28.4027
G1 X104.645 Y77.401 E28.4501
G1 X109.971 Y76.462 E28.6659
G1 X111.150 Y76.324 E28.7133
G1 X116.548 Y76.010 E28.9291
G1 X117.732 Y76.010 E28.9764
G1 X123.130 Y76.324 E29.1922
G1 X124.309 Y76.462 E29.2396
G1 X129.635 Y77.401 E29.4554
G1 X130.789 Y77.674 E29.5027
G1 X135.977 Y79.228 E29.7189
G1 X137.085 Y79.631 E29.7659
G1 X142.050 Y81.773 E29.9818
G1 X143.109 Y82.306 E30.0291
G1 X147.792 Y85.010 E30.2449
G1 X148.782 Y85.661 E30.2922
G1 X153.120 Y88.890 E30.5080
G1 X154.029 Y89.652 E30.5554
G1 X157.962 Y93.362 E30.7712
G1 X158.777 Y94.226 E30.8186
G1 X162.253 Y98.369 E31.0344
G1 X162.961 Y99.321 E31.0818
G1 X165.932 Y103.839 E31.2976
G1 X166.525 Y104.865 E31.3449
G1 X168.952 Y109.697 E31.5607
G1 X169.421 Y110.785 E31.6080
G1 X171.271 Y115.866 E31.8238
G1 X171.612 Y117.004 E31.8712
G1 X172.859 Y122.266 E32.0871
G1 X173.065 Y123.435 E32.1344
G1 X173.692 Y128.806 E32.3503
G1 X173.761 Y129.989 E32.3976
G1 X173.761 Y135.396 E32.6134
G1 X173.692 Y136.579 E32.6607
G1 X173.065 Y141.950 E32.8765
G1 X172.859 Y143.119 E32.9239
G1 X171.612 Y148.381 E33.1397
G1 X171.271 Y149.519 E33.1871
G1 X169.421 Y154.600 E33.4029
G1 X168.952 Y155.687 E33.4502
G1 X166.525 Y160.520 E33.6660
G1 X165.932 Y161.547 E33.7134
G1 X162.961 Y166.065 E33.9292
G1 X162.252 Y167.018 E33.9766
G1 X158.776 Y171.160 E34.1924
G1 X157.963 Y172.022 E34.2397
G1 X154.030 Y175.733 E34.4555
G1 X153.120 Y176.496 E34.5029
G1 X148.782 Y179.725 E34.7188
G1 X147.792 Y180.376 E34.7660
G1 X143.109 Y183.080 E34.9819
G1 X142.048 Y183.613 E35.0293
G1 X137.083 Y185.754 E35.2451
G1 X135.970 Y186.159 E35.2923
G1 X130.790 Y187.710 E35.5082
G1 X129.635 Y187.984 E35.5555
G1 X124.309 Y188.923 E35.7714
G1 X123.132 Y189.061 E35.8187
G1 X117.734 Y189.376 E36.0345
G1 X116.546 Y189.376 E36.0819
G1 X111.148 Y189.061 E36.2977
G1 X109.971 Y188.923 E36.3450
G1 X104.645 Y187.984 E36.5609
G1 X103.491 Y187.711 E36.6082
G1 X98.674 Y186.269 E36.8089
G1 X98.303 Y186.157 E36.8244
G1 X97.197 Y185.754 E36.8713
G1 X92.232 Y183.613 E37.0871
G1 X91.171 Y183.080 E37.1345
G1 X86.488 Y180.376 E37.3504
G1 X85.498 Y179.725 E37.3976
G1 X81.160 Y176.496 E37.6135
G1 X80.250 Y175.733 E37.6609
G1 X76.317 Y172.022 E37.8767
G1 X75.504 Y171.160 E37.9240
G1 X72.028 Y167.018 E38.1398
G1 X71.319 Y166.065 E38.1872
G1 X68.348 Y161.547 E38.4030
G1 X67.755 Y160.520 E38.4504
G1 X65.328 Y155.687 E38.6662
G1 X64.858 Y154.598 E38.7136
G1 X63.009 Y149.517 E38.9294
G1 X62.669 Y148.383 E38.9766
G1 X61.421 Y143.121 E39.1925
G1 X61.215 Y141.950 E39.2399
G1 X60.588 Y136.579 E39.4557
G1 X60.519 Y135.396 E39.5030
G1 X60.519 Y129.989 E39.7188
G1 X60.588 Y128.806 E39.7661
G1 X61.215 Y123.435 E39.9820
G1 X61.421 Y122.264 E40.0294
G1 X62.669 Y117.002 E40.2453
G1 X63.009 Y115.868 E40.2925
G1 X64.858 Y110.787 E40.5083
G1 X65.328 Y109.697 E40.5557
G1 X67.755 Y104.865 E40.7715
G1 X68.348 Y103.839 E40.8188
G1 X71.319 Y99.321 E41.0346
G1 X72.027 Y98.369 E41.0820
G1 X74.451 Y95.480 E41.2325
G1 X71.636 Y96.891 E41.3582
G1 X70.670 Y97.313 E41.4002
G1 X67.779 Y98.402 E41.5235
G1 X66.783 Y98.720 E41.5653
G1 X63.797 Y99.507 E41.6885
G1 X62.766 Y99.723 E41.7306
G1 X59.714 Y100.198 E41.8538
G1 X58.670 Y100.305 E41.8957
G1 X55.585 Y100.464 E42.0190
G1 X54.535 Y100.464 E42.0609
G1 X51.450 Y100.305 E42.1842
G1 X50.406 Y100.198 E42.2261
G1 X47.354 Y99.723 E42.3494
G1 X46.323 Y99.507 E42.3914
G1 X43.337 Y98.720 E42.5147
G1 X42.341 Y98.402 E42.5564
G1 X39.450 Y97.313 E42.6797
G1 X38.484 Y96.891 E42.7218
G1 X35.722 Y95.510 E42.8450
G1 X34.810 Y94.994 E42.8869
G1 X32.203 Y93.336 E43.0102
G1 X31.347 Y92.727 E43.0521
G1 X28.925 Y90.810 E43.1754
G1 X28.136 Y90.116 E43.2173
G1 X25.924 Y87.960 E43.3406
G1 X25.361 Y87.366 E43.3733
G1 X24.277 Y86.125 E43.4390
G1 X23.066 Y84.614 E43.5163
G1 X22.602 Y83.978 E43.5477
G1 X20.878 Y81.415 E43.6710
G1 X20.338 Y80.517 E43.7128
G1 X18.886 Y77.791 E43.8361
G1 X18.441 Y76.839 E43.8781
G1 X17.277 Y73.977 E44.0014
G1 X16.931 Y72.985 E44.0433
G1 X16.068 Y70.020 E44.1666
G1 X15.827 Y68.998 E44.2085
G1 X15.273 Y65.959 E44.3318
G1 X15.138 Y64.916 E44.3737
G1 X14.900 Y61.837 E44.4970
G1 X14.873 Y60.787 E44.5389
G1 X14.953 Y57.699 E44.6622
G1 X15.034 Y56.655 E44.7040
G1 X15.430 Y53.592 E44.8273
G1 X15.619 Y52.555 E44.8693
G1 X16.329 Y49.549 E44.9926
G1 X16.621 Y48.546 E45.0343
G1 X17.635 Y45.628 E45.1576
G1 X18.033 Y44.650 E45.1997
G1 X19.343 Y41.853 E45.3230
G1 X19.835 Y40.928 E45.3648
G1 X21.425 Y38.280 E45.4881
G1 X22.011 Y37.409 E45.5300
G1 X23.865 Y34.938 E45.6533
G1 X24.539 Y34.130 E45.6953
G1 X26.637 Y31.864 E45.8186
;PRINTING: body523
;PRINTING_ID: 1
G1 F3600 E39.8186
G0 F6000 X73.862 Y82.841
;TYPE:WALL-INNER
;WIDTH:0.400
G1 F1500 E45.8186
G1 F600 X72.095 Y84.240 E45.9085
G1 X69.540 Y85.864 E46.0293
G1 X66.834 Y87.217 E46.1501
G1 X65.208 Y87.829 E46.2194
G1 X65.120 Y87.705 E46.2255
G1 X65.251 Y87.549 E46.2336
G1 X65.466 Y87.185 E46.2505
G1 X65.619 Y86.791 E46.2674
G1 X65.708 Y86.375 E46.2843
G1 X65.725 Y85.929 E46.3022
G1 X65.678 Y85.533 E46.3181
G1 X65.561 Y85.126 E46.3350
G1 X65.390 Y84.766 E46.3509
G1 X56.147 Y68.769 E47.0883
G1 X55.325 Y67.565 E47.1465
G1 X54.247 Y66.404 E47.2097
G1 X53.009 Y65.416 E47.2729
G1 X51.636 Y64.624 E47.3362
G1 X50.161 Y64.045 E47.3994
G1 X48.617 Y63.692 E47.4626
G1 X47.060 Y63.575 E47.5250
G1 X28.687 Y63.575 E48.2583
G1 X28.291 Y63.608 E48.2741
G1 X27.877 Y63.710 E48.2911
G1 X27.468 Y63.892 E48.3090
G1 X27.135 Y64.107 E48.3248
G1 X26.820 Y64.388 E48.3417
G1 X26.555 Y64.720 E48.3586
G1 X26.348 Y65.088 E48.3755
G1 X26.277 Y65.284 E48.3838
G1 X26.126 Y65.271 E48.3898
G1 X25.904 Y64.053 E48.4393
G1 X25.670 Y61.036 E48.5600
G1 X25.749 Y58.009 E48.6809
G1 X26.106 Y55.247 E48.7920
G1 X26.260 Y55.230 E48.7982
G1 X26.349 Y55.469 E48.8084
G1 X26.555 Y55.836 E48.8252
G1 X26.820 Y56.167 E48.8421
G1 X27.135 Y56.451 E48.8591
